images/preferences/12.svg

<svg width="75" height="82" viewBox="0 0 75 82" fill="none" xmlns="http://www.w3.org/2000/svg">
<path d="M52.5854 14.3973C59.3469 16.6213 70.9697 26.6339 66.793 46.0169C60.6494 64.604 41.2385 77.0779 23.4659 71.2321C5.69321 65.3863 2.99523 54.4529 5.77593 46.0391C8.43616 37.9907 24.4544 42.7907 29.9247 36.9488C37.0878 29.2993 42.5084 11.0827 52.5854 14.3973Z" fill="url(#paint0_linear)"/>
<g clip-path="url(#clip0)">
<path d="M20.0837 12.4263C20.0837 19.0509 25.4833 24.4398 32.1199 24.4398C38.7564 24.4398 44.156 19.0509 44.156 12.4263C44.156 5.8018 38.7564 0.413281 32.1199 0.413281C25.4833 0.413281 20.0837 5.8018 20.0837 12.4263ZM41.6042 12.4263C41.6042 17.6451 37.3497 21.8918 32.1199 21.8918C26.89 21.8918 22.6355 17.6451 22.6355 12.4263C22.6355 7.20803 26.89 2.9613 32.1199 2.9613C37.3498 2.9613 41.6042 7.20803 41.6042 12.4263Z" fill="white" stroke="white" stroke-width="0.4"/>
<path d="M19.3224 50.3176L19.3234 50.3165C20.2341 49.4076 20.5311 48.0786 20.1767 46.9L21.209 45.9063L21.2091 45.9062C21.776 45.3598 22.5217 45.0588 23.3108 45.0588H37.6154C40.2033 45.0588 42.6502 44.0673 44.5055 42.2673C44.5157 42.2591 44.5242 42.2509 44.5329 42.2416C44.5472 42.2265 44.5727 42.197 44.627 42.1328C44.739 42.0005 44.9888 41.7027 45.5584 41.023C45.7657 40.7756 46.0154 40.4775 46.3164 40.1182C47.6695 38.5031 50.0581 35.652 54.2818 30.6138C55.8848 28.7207 55.6447 25.8788 53.7467 24.2773L53.7464 24.2771C51.8618 22.6919 49.04 22.918 47.432 24.774L41.2394 31.1264C40.4024 30.1964 39.19 29.6239 37.8845 29.6239H25.9255C24.2043 28.9109 22.3792 28.5501 20.4973 28.5501C15.3003 28.5501 10.7397 30.9264 8.25637 35.3961C7.21355 35.2447 6.13173 35.5793 5.34424 36.3652L5.34404 36.3654L0.225205 41.4893L0.225201 41.4894C-0.270609 41.9857 -0.271553 42.7888 0.223165 43.2865L0.223196 43.2865L12.3049 55.4365C12.3049 55.4365 12.3049 55.4365 12.3049 55.4365C12.7995 55.9341 13.6045 55.9396 14.1056 55.447L13.9653 55.3043L14.1056 55.4469L19.3224 50.3176ZM52.3294 28.9734L52.3288 28.9742L42.6847 40.4808C41.3137 41.7907 39.5162 42.5112 37.6154 42.5112H23.3108C21.8575 42.5112 20.4808 43.0662 19.4369 44.0728C19.4369 44.0728 19.4369 44.0728 19.4368 44.0728L18.6637 44.8175L10.4785 36.6487C12.4271 33.1126 16.0187 31.0977 20.4968 31.0977C22.1177 31.0977 23.6839 31.4232 25.1539 32.065C25.3154 32.1357 25.4894 32.172 25.6653 32.172H37.8845C38.9432 32.172 39.8367 33.0345 39.8367 34.1196C39.8367 35.1933 38.9613 36.0676 37.8845 36.0676H29.1053C28.4011 36.0676 27.8294 36.6376 27.8294 37.3414C27.8294 38.0456 28.4012 38.6152 29.1053 38.6152H37.8845C40.3679 38.6152 42.3885 36.5991 42.3885 34.1196C42.3885 33.9544 42.3787 33.7908 42.3607 33.6291C44.3293 31.6095 45.7507 30.1517 46.7742 29.1019C47.3259 28.5359 47.762 28.0886 48.106 27.7358C48.6004 27.2286 48.9042 26.9167 49.0867 26.7289C49.2615 26.5491 49.3317 26.4763 49.3484 26.4567C50.0441 25.6371 51.2798 25.5333 52.101 26.2243C52.9227 26.918 53.027 28.1493 52.3294 28.9734ZM8.23572 38.0437L8.23678 38.0443C8.26189 38.0596 8.26794 38.0626 8.27071 38.0639C8.27291 38.065 8.27304 38.065 8.27898 38.0694C8.29019 38.0778 8.31448 38.098 8.37805 38.1585C8.50293 38.2773 8.75346 38.5261 9.30348 39.0756C9.52021 39.2922 9.78312 39.5551 10.1027 39.8747C11.4023 41.1744 13.6393 43.4114 17.5194 47.2786C17.8688 47.6274 17.8501 48.1841 17.5257 48.5084C17.5255 48.5086 17.5253 48.5087 17.5252 48.5089L13.2207 52.7413L2.92869 42.391L7.14964 38.1661C7.14966 38.1661 7.14968 38.166 7.1497 38.166C7.43854 37.8778 7.88139 37.8251 8.23572 38.0437Z" fill="white" stroke="white" stroke-width="0.4"/>
<path d="M28.8641 14.5519L28.864 14.552C28.3245 15.0048 28.2545 15.8084 28.7085 16.3472C29.2677 17.011 29.9249 17.4921 30.6299 17.7579V18.8703C30.6299 19.5745 31.2017 20.1441 31.9058 20.1441C32.6099 20.1441 33.1817 19.5745 33.1817 18.8703V17.75C34.4412 17.2438 35.3339 16.0121 35.3339 14.5746C35.3339 12.6872 33.796 11.1528 31.9058 11.1528C31.4226 11.1528 31.0299 10.7603 31.0299 10.279C31.0299 9.79766 31.4227 9.4048 31.9058 9.4048C32.218 9.4048 32.5732 9.5648 32.9306 9.91009L32.9306 9.91012C33.4372 10.3992 34.2446 10.3858 34.7347 9.88077L34.7347 9.8807C35.225 9.37493 35.2115 8.56837 34.7053 8.07909L34.7053 8.07903C34.1869 7.5784 33.6646 7.27311 33.1817 7.09271V5.9834C33.1817 5.27929 32.61 4.70918 31.9058 4.70918C31.2016 4.70918 30.6299 5.27929 30.6299 5.9834V7.1036C29.3703 7.6094 28.4777 8.84114 28.4777 10.279C28.4777 12.1661 30.0156 13.7008 31.9058 13.7008C32.3889 13.7008 32.7817 14.0934 32.7817 14.5746C32.7817 15.0559 32.3889 15.4484 31.9058 15.4484C31.5294 15.4484 31.0836 15.2086 30.6617 14.7073L30.6616 14.7072C30.2079 14.1687 29.4034 14.0997 28.8641 14.5519Z" fill="white" stroke="white" stroke-width="0.4"/>
</g>
<defs>
<linearGradient id="paint0_linear" x1="0" y1="63.5137" x2="78.0809" y2="16.0869" gradientUnits="userSpaceOnUse">
<stop stop-color="#F09642" stop-opacity="0.78"/>
<stop offset="1" stop-color="#F0D542" stop-opacity="0.79"/>
</linearGradient>
<clipPath id="clip0">
<rect width="55" height="55" fill="white" transform="translate(0 0.613281)"/>
</clipPath>
</defs>
</svg>

<svg width="75" height="82" fill="none" xmlns="http://www.w3.org/2000/svg"><path d="M52.585 14.397c6.762 2.224 18.385 12.237 14.208 31.62-6.144 18.587-25.555 31.06-43.327 25.215-17.773-5.846-20.47-16.78-17.69-25.193 2.66-8.048 18.678-3.248 24.149-9.09 7.163-7.65 12.583-25.866 22.66-22.552Z" fill="url(#a)"/><g clip-path="url(#b)" fill="#fff" stroke="#fff" stroke-width=".4"><path d="M20.084 12.426c0 6.625 5.4 12.014 12.036 12.014 6.636 0 12.036-5.39 12.036-12.014S38.756.413 32.12.413c-6.637 0-12.036 5.389-12.036 12.013Zm21.52 0c0 5.22-4.254 9.466-9.484 9.466s-9.484-4.247-9.484-9.466c0-5.218 4.254-9.465 9.484-9.465s9.484 4.247 9.484 9.465ZM19.322 50.318l.001-.002a3.44 3.44 0 0 0 .854-3.416l1.032-.994a3.013 3.013 0 0 1 2.102-.847h14.304a9.844 9.844 0 0 0 6.918-2.817 436.904 436.904 0 0 0 1.026-1.219l.757-.905 7.966-9.504a4.496 4.496 0 0 0-.535-6.337 4.52 4.52 0 0 0-6.315.497l-6.193 6.352a4.525 4.525 0 0 0-3.354-1.502h-11.96a14.106 14.106 0 0 0-5.428-1.074c-5.197 0-9.757 2.376-12.24 6.846a3.418 3.418 0 0 0-2.913.97L.225 41.488a1.273 1.273 0 0 0-.002 1.797l12.082 12.15c.495.498 1.3.504 1.8.011l-.14-.143.14.143 5.217-5.13ZM52.33 28.973v.001l-9.644 11.507a7.3 7.3 0 0 1-5.07 2.03H23.311c-1.453 0-2.83.555-3.874 1.562l-.773.745-8.186-8.17c1.95-3.535 5.54-5.55 10.019-5.55 1.62 0 3.187.325 4.657.967.161.07.335.107.511.107h12.22c1.058 0 1.952.863 1.952 1.948a1.952 1.952 0 0 1-1.953 1.948h-8.779a1.275 1.275 0 1 0 0 2.547h8.78a4.505 4.505 0 0 0 4.476-4.986l4.413-4.527a11370.709 11370.709 0 0 1 2.313-2.373c.174-.18.245-.253.261-.272a1.962 1.962 0 0 1 2.753-.233 1.95 1.95 0 0 1 .228 2.75Zm-44.093 9.07v.001a.403.403 0 0 0 .035.02l.008.005c.011.009.035.029.1.09.124.118.374.367.924.917l.8.799c1.3 1.3 3.536 3.536 7.416 7.404.35.348.331.905.007 1.23L13.22 52.74 2.929 42.391l4.22-4.225a.875.875 0 0 1 1.087-.122Z"/><path d="M28.864 14.552a1.272 1.272 0 0 0-.155 1.795c.559.664 1.216 1.145 1.92 1.41v1.113c0 .704.573 1.274 1.277 1.274s1.276-.57 1.276-1.274v-1.12a3.427 3.427 0 0 0 2.152-3.175 3.428 3.428 0 0 0-3.428-3.422.876.876 0 0 1-.876-.874c0-.481.393-.874.876-.874.312 0 .667.16 1.025.505.506.49 1.314.476 1.804-.03a1.273 1.273 0 0 0-.03-1.8v-.001a4.417 4.417 0 0 0-1.523-.986v-1.11a1.275 1.275 0 0 0-2.552 0v1.12a3.426 3.426 0 0 0-2.152 3.176 3.429 3.429 0 0 0 3.428 3.422c.483 0 .876.392.876.874a.876.876 0 0 1-.876.873c-.377 0-.822-.24-1.244-.74a1.278 1.278 0 0 0-1.798-.156Z"/></g><defs><linearGradient id="a" x1="0" y1="63.514" x2="78.081" y2="16.087" gradientUnits="userSpaceOnUse"><stop stop-color="#F09642" stop-opacity=".78"/><stop offset="1" stop-color="#F0D542" stop-opacity=".79"/></linearGradient><clipPath id="b"><path fill="#fff" transform="translate(0 .613)" d="M0 0h55v55H0z"/></clipPath></defs></svg>
